X: 083
T: 3 Le Nes\'eraire
T: le Nes\'eraire
B: Robert Landrin "Potpourri fran\,cois des contre-danse ancienne tel quil se danse chez la Reine ..." 1760 p.8 #3  dance 03 #3
S: http://memory.loc.gov/cgi-bin/query/D?musdibib:2:./temp/~ammem_EbRS:
Z: 2014 John Chambers <jc:trillian.mit.edu>
M: 2/2
L: 1/8
K: Gdor
% - - - - - - - - - - - - - - - - - - - - - - - - -
|:!segno!\
G^FGA B2A2 | !+!G4 ^F4 | G^FGA B2A2 | G2GG G4 |][|\
BABc A2B2 | "2 f"c4 "^larondeau"c4 | cBcd c2d2 | d2cB !+!A4 !segno! :|
% - - - - - - - - - - - - - - - - - - - - - - - - -

%%sep 1 1 500
%%sep 1 1 500
